T: Flowers Of Edinburgh, The
M: 4/4
L: 1/8
K: Gmaj
DEFD G2 A2 | B2 B2 BdcB | AGFG EFGA | B2 E2 E2 GE |DEFD G2 A2 | B2 B2 Bgfe | dcBA GFGA | B2 G2 G4 |]g6 (3gag | f6 (3faf | e2 e2 efge | B2 e2 e2 ge |dBGB d2 d2 | e2 e2 efge | dcBA GFGA | B2 G2 G4 |]G2 DG B2 GB | d2 B2 g3 e | d2 B2 BAGA | B2 G2 E2 D2 | G2 DG B2 GB | d2 B2 g3 e | d2B2 BAGA | B2 G2 G2 f2 |]g4 f3 e | B2 e2 e3 f | g2 g2 fafd | B2 e2 e2 ge | dBGB d2 d2 | edef g2 fe | d2 B2 BAGA | B2 G2 G2 |]
